X:1
T:5
T:6
T:Études enfantines op. 37
T:Henry Lemoine
C:Henri Lemoine
%%score { ( 1 4 ) | ( 2 3 ) }
L:1/8
Q:1/8=130
M:3/8
K:C
V:1 treble nm="Piano" snm="Pno."
V:4 treble 
V:2 bass 
V:3 bass 
V:1
!p!"^Allegretto" (!5!g/4f/4e/4d/4.c) z | (!5!d/4c/4B/4A/4.G) z |!<(! .G.c!<)!.e | %3
!>(! (!1!d.!4!g) z!>)! |!p! (!5!g/4f/4e/4d/4.c) z | (d/4c/4B/4A/4.G) z |!f! (Gc/e/d/B/ | c2) z :| %8
!p! (!5!d/4c/4B/4A/4 .G) !^!g- | (g/4f/4e/4d/4.c) z |!f! (!5!d/4c/4B/4A/4 .G) !^!g- | %11
 (g/4f/4e/4d/4.c) z |!p! (c/4d/4e/4f/4.g) z |"_cresc." (!1!f/4g/4a/4b/4.c') z | %14
!f! (!1!b/4c'/4d'/4e'/4.f') .[fb] | .[ec'] z z!fine! |:!mf! (c2 .a) | (c2 .a) | (!4!g/f/e/f/g/e/) | %19
 (f2 .a) | (c2 .a) | (c2 .a) | (g/a/g/f/e/g/ | f2) z :|!f! (g2 ^f | g>ec/e/) | (g2 ^f | g>ec/e/) | %28
 (g2 ^f) | (g2 ^f) |!>(! (g>fe/d/)!>)! |!p!!<(! (!3!d/c/B/c/d/c/)!<)! |!mf! (c2 .a) | (c2 .a) | %34
 (!4!g/f/e/f/g/e/) | (f2 .a) | (c2 .a) |"_cresc." (!3!^fgd) |!f! (e/f/g/c/d/e/ | f2) z!D.C.! |] %40
V:2
 [CE]2 [CE] | [G,B,F]2 [G,B,F] | [CE]2 [CE] | [G,B,F]2 z | [CE]2 [CE] | [G,B,F]2 [G,B,F] | %6
 [CE]2 [G,DF] | [CE]2 z :| [G,B,F]2 [G,B,F] | [G,CE]2 [G,CE] | [G,B,F]2 [G,B,F] | [CE] z .[CE] | %12
 .[_B,C] z .[B,C] | .[A,C] z .[_A,C] | .[G,D] z .[G,D] | .[CE] z z |: z !^!C2 | z !^!C2 | z CC | %19
 z CC | z !^!C2 | z !^!C2 | z CC | A,CA, :| [E,_B,C]3- | [E,B,C][E,_B,C][E,B,C] | [E,_B,C]3- | %27
 [E,B,C][E,_B,C][E,B,C] | [E,_B,C]3 | [E,_B,C]3 | z [E,_B,C][E,B,C] | [E,_B,C]3 | z !^!C2 | %33
 z !^!C2 | z CC | z !^!C2 | z !^!C2 | [_B,D]2 z | z [C,G,_B,][C,G,B,] | [F,A,]2 z |] %40
V:3
 x3 | x3 | x3 | x3 | x3 | x3 | x3 | x3 :| x3 | x3 | x3 | x3 | x3 | x3 | x3 | x3 |: [F,A,]3 | %17
 [F,A,]3 | [F,_B,]3 | [F,A,]3 | [F,A,]3 | [F,A,]3 | [F,_B,]3 | F,3 :| x3 | x3 | x3 | x3 | x3 | x3 | %30
 x3 | x3 | [F,A,]3 | [F,A,]3 | [F,_B,]3 | [F,A,]3 | [F,A,]3 | x3 | x3 | x3 |] %40
V:4
 x3 | x3 | x3 | x3 | x3 | x3 | x3 | x3 :| x3 | x3 | x3 | x3 | x3 | x3 | x3 | x3 |: x3 | x3 | x3 | %19
 x3 | x3 | x3 | x3 | x3 :| z c2- | c2 z | z c2- | c2 z | z c2- | c c2- | c2 z | x3 | x3 | x3 | x3 | %35
 x3 | x3 | x3 | x3 | x3 |] %40

